X: 3
T: Sonny Murray's
R: hornpipe
M: 4/4
L: 1/8
K: Dmaj
dB|ABAF DEFG|AFAB =c2 (3AB^c|dcde fdAF|DGGF G2FG|ABAF DEFG|AFAB =c2 (3AB^c|dcde fdAG|F2D2 D2:||de|fedf edcA|dggf g2fg|abag agec|dcAF G2FG|ABAF DEFG|AFAB =c2 (3AB^c|dcde fdAG|F2D2 D2 :||


Tune 309	Setting 309

